;FLAVOR:Marlin
;TIME:2496
;Filament used: 1.56705m
;Layer height: 0.2
;MINX:69.001
;MINY:87.5
;MINZ:0.2
;MAXX:165.999
;MAXY:147.499
;MAXZ:7
;Generated with Cura_SteamEngine 5.3.0
M140 S55
M105
M190 S55
M104 S215
M105
M109 S215
M82 ;absolute extrusion mode
; Ender 3 Custom Start G-code
G92 E0 ; Reset Extruder
G28 ; Home all axes
G1 Z2.0 F3000 ; Move Z Axis up little to prevent scratching of Heat Bed
G1 X0.1 Y20 Z0.3 F5000.0 ; Move to start position
G1 X0.1 Y200.0 Z0.3 F1500.0 E15 ; Draw the first line
G1 X0.4 Y200.0 Z0.3 F5000.0 ; Move to side a little
G1 X0.4 Y20 Z0.3 F1500.0 E30 ; Draw the second line
G92 E0 ; Reset Extruder
G1 Z2.0 F3000 ; Move Z Axis up little to prevent scratching of Heat Bed
G1 X5 Y20 Z0.3 F5000.0 ; Move over to prevent blob squish
G92 E0
G92 E0
G1 F2700 E-5
;LAYER_COUNT:35
;LAYER:0
M107
G0 F6000 X84.012 Y91.448 Z0.2
;TYPE:SKIRT
G1 F2700 E0
G1 F1200 X84.71 Y90.906 E0.02939
G1 X85.13 Y90.608 E0.04652
G1 X85.889 Y90.119 E0.07655
G1 X86.633 Y89.724 E0.10457
G1 X87.11 Y89.496 E0.12215
G1 X87.941 Y89.143 E0.15218
G1 X88.78 Y88.871 E0.18152
G1 X89.277 Y88.733 E0.19867
G1 X90.157 Y88.53 E0.22871
G1 X91.068 Y88.404 E0.2593
G1 X91.588 Y88.356 E0.27667
G1 X92.359 Y88.314 E0.30235
G1 X93.152 Y88.301 E0.32873
G1 X119.743 Y88.3 E1.21315
G1 X120.537 Y88.31 E1.23956
G1 X121.206 Y88.341 E1.26183
G1 X121.759 Y88.385 E1.28028
G1 X122.655 Y88.497 E1.31032
G1 X123.491 Y88.675 E1.33875
G1 X123.977 Y88.8 E1.35544
G1 X124.841 Y89.063 E1.38548
G1 X125.647 Y89.388 E1.41438
G1 X126.128 Y89.606 E1.43194
G1 X126.933 Y90.014 E1.46196
G1 X127.723 Y90.51 E1.49299
G1 X128.178 Y90.825 E1.51139
G1 X129.023 Y91.478 E1.54691
G1 X129.908 Y92.239 E1.58573
G1 X131.915 Y93.916 E1.67272
G1 X133.891 Y95.476 E1.75646
G1 X135.935 Y96.996 E1.84118
G1 X138.012 Y98.451 E1.92552
G1 X140.136 Y99.852 E2.01015
G1 X142.313 Y101.201 E2.09533
G1 X144.499 Y102.472 E2.17944
G1 X146.732 Y103.687 E2.26399
G1 X148.973 Y104.825 E2.34758
G1 X151.29 Y105.92 E2.43282
G1 X153.611 Y106.939 E2.51713
G1 X156.686 Y108.17 E2.6273
G1 X157.075 Y108.335 E2.64135
G1 X157.647 Y108.592 E2.66221
G1 X158.454 Y108.998 E2.69225
G1 X159.264 Y109.504 E2.72402
G1 X159.707 Y109.81 E2.74193
G1 X160.427 Y110.355 E2.77196
G1 X161.073 Y110.94 E2.80095
G1 X161.438 Y111.3 E2.818
G1 X162.052 Y111.962 E2.84803
G1 X162.594 Y112.66 E2.87742
G1 X162.892 Y113.08 E2.89455
G1 X163.381 Y113.839 E2.92458
G1 X163.776 Y114.583 E2.9526
G1 X164.004 Y115.06 E2.97018
G1 X164.357 Y115.891 E3.00021
G1 X164.629 Y116.73 E3.02955
G1 X164.767 Y117.227 E3.0467
G1 X164.97 Y118.107 E3.07674
G1 X165.095 Y119.015 E3.10722
G1 X165.143 Y119.533 E3.12453
G1 X165.186 Y120.307 E3.15031
G1 X165.199 Y121.102 E3.17675
G1 X165.199 Y125.933 E3.33743
G1 X165.19 Y126.587 E3.35919
G1 X165.159 Y127.256 E3.38146
G1 X165.115 Y127.809 E3.39991
G1 X165.003 Y128.705 E3.42995
G1 X164.824 Y129.546 E3.45855
G1 X164.699 Y130.031 E3.4752
G1 X164.435 Y130.894 E3.50522
G1 X164.116 Y131.688 E3.53368
G1 X163.898 Y132.17 E3.55128
G1 X163.489 Y132.976 E3.58134
G1 X162.996 Y133.764 E3.61225
G1 X162.69 Y134.207 E3.63016
G1 X162.145 Y134.927 E3.66019
G1 X161.56 Y135.573 E3.68918
G1 X161.2 Y135.938 E3.70623
G1 X160.538 Y136.552 E3.73626
G1 X159.84 Y137.094 E3.76566
G1 X159.42 Y137.392 E3.78278
G1 X158.661 Y137.881 E3.81281
G1 X157.909 Y138.279 E3.84111
G1 X157.431 Y138.507 E3.85873
G1 X156.6 Y138.86 E3.88876
G1 X155.774 Y139.128 E3.91764
G1 X155.278 Y139.266 E3.93476
G1 X154.398 Y139.469 E3.9648
G1 X153.595 Y139.585 E3.99179
G1 X152.93 Y139.649 E4.01401
G1 X151.74 Y139.737 E4.05369
G1 X149.102 Y139.969 E4.14177
G1 X146.56 Y140.267 E4.2269
G1 X144.092 Y140.627 E4.30985
G1 X141.542 Y141.073 E4.39595
G1 X139.121 Y141.565 E4.47812
G1 X136.612 Y142.152 E4.56383
G1 X134.129 Y142.807 E4.64924
G1 X131.713 Y143.517 E4.73299
G1 X129.315 Y144.298 E4.81687
G1 X126.124 Y145.451 E4.92972
G1 X125.166 Y145.819 E4.96385
G1 X124.24 Y146.124 E4.99628
G1 X123.721 Y146.268 E5.0142
G1 X122.841 Y146.47 E5.04423
G1 X121.932 Y146.596 E5.07475
G1 X121.412 Y146.644 E5.09212
G1 X120.641 Y146.686 E5.1178
G1 X119.848 Y146.699 E5.14418
G1 X83.567 Y146.699 E6.35089
G1 X82.913 Y146.69 E6.37264
G1 X82.244 Y146.659 E6.39492
G1 X81.691 Y146.615 E6.41337
G1 X80.795 Y146.503 E6.4434
G1 X79.959 Y146.325 E6.47183
G1 X79.473 Y146.2 E6.48852
G1 X78.609 Y145.937 E6.51856
G1 X77.803 Y145.612 E6.54746
G1 X77.322 Y145.394 E6.56503
G1 X76.517 Y144.986 E6.59505
G1 X75.736 Y144.496 E6.62571
G1 X75.293 Y144.19 E6.64362
G1 X74.573 Y143.645 E6.67365
G1 X73.927 Y143.06 E6.70264
G1 X73.562 Y142.7 E6.71969
G1 X72.948 Y142.038 E6.74972
G1 X72.406 Y141.34 E6.77911
G1 X72.108 Y140.92 E6.79624
G1 X71.619 Y140.161 E6.82627
G1 X71.224 Y139.417 E6.85429
G1 X70.996 Y138.94 E6.87187
G1 X70.643 Y138.109 E6.9019
G1 X70.371 Y137.27 E6.93124
G1 X70.233 Y136.773 E6.94839
G1 X70.03 Y135.893 E6.97843
G1 X69.905 Y134.985 E7.00892
G1 X69.857 Y134.467 E7.02622
G1 X69.814 Y133.693 E7.052
G1 X69.801 Y132.898 E7.07845
G1 X69.801 Y118.041 E7.57259
G1 X69.81 Y117.408 E7.59365
G1 X69.841 Y116.744 E7.61576
G1 X69.885 Y116.191 E7.63421
G1 X69.997 Y115.295 E7.66424
G1 X70.176 Y114.454 E7.69284
G1 X70.301 Y113.969 E7.7095
G1 X70.565 Y113.106 E7.73952
G1 X70.884 Y112.312 E7.76798
G1 X71.102 Y111.83 E7.78557
G1 X71.511 Y111.024 E7.81563
G1 X71.952 Y110.311 E7.84352
G1 X72.278 Y109.833 E7.86276
G1 X73.958 Y107.445 E7.95987
G1 X75.342 Y105.347 E8.04347
G1 X76.691 Y103.173 E8.12856
G1 X77.967 Y100.978 E8.21301
G1 X79.158 Y98.793 E8.29578
G1 X80.605 Y95.922 E8.40271
G1 X80.771 Y95.58 E8.41535
G1 X81.201 Y94.786 E8.44539
G1 X81.546 Y94.248 E8.46664
G1 X81.848 Y93.809 E8.48437
G1 X82.393 Y93.088 E8.51443
G1 X82.99 Y92.427 E8.54405
G1 X83.35 Y92.062 E8.5611
G1 X84.012 Y91.448 E8.59113
G0 F6000 X83.767 Y91.132
G1 F1200 X84.479 Y90.58 E8.6211
G1 X84.913 Y90.272 E8.6388
G1 X85.701 Y89.766 E8.66995
G1 X86.46 Y89.363 E8.69853
G1 X86.954 Y89.128 E8.71672
G1 X87.818 Y88.762 E8.74793
G1 X88.657 Y88.49 E8.77727
G1 X89.187 Y88.343 E8.79556
G1 X90.067 Y88.14 E8.8256
G1 X91.031 Y88.006 E8.85797
G1 X91.566 Y87.957 E8.87584
G1 X92.352 Y87.914 E8.90202
G1 X93.152 Y87.901 E8.92863
G1 X119.748 Y87.9 E9.81322
G1 X120.556 Y87.91 E9.84009
G1 X121.238 Y87.942 E9.8628
G1 X121.809 Y87.988 E9.88185
G1 X122.705 Y88.1 E9.91189
G1 X123.591 Y88.288 E9.94201
G1 X124.093 Y88.417 E9.95925
G1 X124.991 Y88.692 E9.99049
G1 X125.812 Y89.024 E10.01994
G1 X126.309 Y89.249 E10.03809
G1 X127.146 Y89.675 E10.06932
G1 X127.951 Y90.181 E10.10095
G1 X128.423 Y90.508 E10.12005
G1 X129.268 Y91.161 E10.15557
G1 X130.164 Y91.932 E10.19488
G1 X132.163 Y93.602 E10.28152
G1 X134.13 Y95.155 E10.36487
G1 X136.165 Y96.668 E10.44921
G1 X138.242 Y98.123 E10.53356
G1 X140.347 Y99.512 E10.61744
G1 X142.514 Y100.855 E10.70224
G1 X144.7 Y102.126 E10.78634
G1 X146.913 Y103.33 E10.87013
G1 X149.144 Y104.463 E10.95336
G1 X151.461 Y105.558 E11.03859
G1 X153.767 Y106.571 E11.12236
G1 X156.842 Y107.802 E11.23253
G1 X157.239 Y107.97 E11.24687
G1 X157.827 Y108.235 E11.26832
G1 X158.666 Y108.659 E11.29958
G1 X159.491 Y109.175 E11.33195
G1 X159.948 Y109.491 E11.35043
G1 X160.668 Y110.036 E11.38046
G1 X161.354 Y110.655 E11.4112
G1 X161.731 Y111.028 E11.42883
G1 X162.368 Y111.717 E11.46004
G1 X162.92 Y112.429 E11.49001
G1 X163.228 Y112.863 E11.50771
G1 X163.734 Y113.651 E11.53886
G1 X164.137 Y114.41 E11.56744
G1 X164.372 Y114.904 E11.58563
G1 X164.738 Y115.768 E11.61684
G1 X165.01 Y116.607 E11.64618
G1 X165.157 Y117.137 E11.66447
G1 X165.36 Y118.017 E11.69451
G1 X165.493 Y118.978 E11.72678
G1 X165.542 Y119.511 E11.74458
G1 X165.586 Y120.3 E11.77086
G1 X165.599 Y121.095 E11.79731
G1 X165.599 Y125.939 E11.95842
G1 X165.59 Y126.606 E11.98061
G1 X165.558 Y127.288 E12.00331
G1 X165.512 Y127.859 E12.02237
G1 X165.4 Y128.755 E12.0524
G1 X165.211 Y129.646 E12.08269
G1 X165.082 Y130.148 E12.09993
G1 X164.818 Y131.011 E12.12995
G1 X164.48 Y131.853 E12.16013
G1 X164.255 Y132.351 E12.1783
G1 X163.846 Y133.157 E12.20836
G1 X163.325 Y133.991 E12.24107
G1 X163.009 Y134.448 E12.25955
G1 X162.464 Y135.168 E12.28958
G1 X161.845 Y135.854 E12.32032
G1 X161.472 Y136.231 E12.33796
G1 X160.783 Y136.868 E12.36916
G1 X160.071 Y137.42 E12.39913
G1 X159.637 Y137.728 E12.41683
G1 X158.848 Y138.235 E12.44802
G1 X158.081 Y138.64 E12.47687
G1 X157.587 Y138.875 E12.49507
G1 X156.756 Y139.228 E12.5251
G1 X155.881 Y139.513 E12.5557
G1 X155.368 Y139.656 E12.57342
G1 X154.488 Y139.859 E12.60345
G1 X153.633 Y139.983 E12.63219
G1 X152.959 Y140.048 E12.65471
G1 X151.769 Y140.136 E12.6944
G1 X149.149 Y140.366 E12.78187
G1 X146.618 Y140.663 E12.86663
G1 X144.15 Y141.023 E12.94959
G1 X141.622 Y141.465 E13.03495
G1 X139.201 Y141.957 E13.11711
G1 X136.714 Y142.539 E13.20207
G1 X134.242 Y143.191 E13.2871
G1 X131.826 Y143.901 E13.37085
G1 X129.451 Y144.674 E13.45392
G1 X126.26 Y145.827 E13.56677
G1 X125.291 Y146.199 E13.6013
G1 X124.347 Y146.509 E13.63434
G1 X123.81 Y146.658 E13.65288
G1 X122.93 Y146.86 E13.68291
G1 X121.969 Y146.994 E13.71518
G1 X121.434 Y147.043 E13.73305
G1 X120.648 Y147.086 E13.75923
G1 X119.855 Y147.099 E13.78561
G1 X83.561 Y147.099 E14.99275
G1 X82.894 Y147.09 E15.01494
G1 X82.212 Y147.058 E15.03765
G1 X81.641 Y147.012 E15.0567
G1 X80.745 Y146.9 E15.08673
G1 X79.859 Y146.712 E15.11686
G1 X79.357 Y146.583 E15.1341
G1 X78.459 Y146.308 E15.16533
G1 X77.638 Y145.976 E15.19479
G1 X77.141 Y145.751 E15.21293
G1 X76.304 Y145.325 E15.24417
G1 X75.523 Y144.835 E15.27484
G1 X75.052 Y144.509 E15.29389
G1 X74.332 Y143.964 E15.32392
G1 X73.646 Y143.345 E15.35465
G1 X73.269 Y142.972 E15.37229
G1 X72.632 Y142.283 E15.4035
G1 X72.08 Y141.571 E15.43347
G1 X71.772 Y141.137 E15.45117
G1 X71.266 Y140.349 E15.48232
G1 X70.863 Y139.59 E15.5109
G1 X70.628 Y139.096 E15.52909
G1 X70.262 Y138.232 E15.5603
G1 X69.99 Y137.393 E15.58964
G1 X69.843 Y136.863 E15.60793
G1 X69.64 Y135.983 E15.63797
G1 X69.507 Y135.022 E15.67023
G1 X69.458 Y134.489 E15.68804
G1 X69.414 Y133.7 E15.71432
G1 X69.401 Y132.905 E15.74077
G1 X69.401 Y118.035 E16.23534
G1 X69.41 Y117.389 E16.25683
G1 X69.442 Y116.712 E16.27937
G1 X69.488 Y116.141 E16.29843
G1 X69.6 Y115.245 E16.32846
G1 X69.789 Y114.354 E16.35875
G1 X69.918 Y113.852 E16.37599
G1 X70.182 Y112.989 E16.40601
G1 X70.52 Y112.147 E16.43619
G1 X70.745 Y111.649 E16.45436
G1 X71.154 Y110.843 E16.48442
G1 X71.622 Y110.086 E16.51403
G1 X71.951 Y109.603 E16.53346
G1 X73.631 Y107.215 E16.63057
G1 X75.008 Y105.127 E16.71376
G1 X76.351 Y102.962 E16.7985
G1 X77.621 Y100.777 E16.88256
G1 X78.807 Y98.602 E16.96496
G1 X80.419 Y95.39 E17.08449
G1 X80.864 Y94.57 E17.11552
G1 X81.216 Y94.021 E17.13721
G1 X81.518 Y93.582 E17.15493
G1 X82.096 Y92.82 E17.18674
G1 X82.705 Y92.146 E17.21695
G1 X83.078 Y91.769 E17.23459
G1 X83.767 Y91.132 E17.2658
G0 F6000 X83.495 Y90.838
G1 F1200 X84.248 Y90.254 E17.2975
G1 X84.697 Y89.935 E17.31582
G1 X85.485 Y89.429 E17.34696
G1 X86.288 Y89.002 E17.37721
G1 X86.798 Y88.76 E17.39599
G1 X87.695 Y88.381 E17.42838
G1 X88.534 Y88.109 E17.45771
G1 X89.097 Y87.953 E17.47714
G1 X89.977 Y87.75 E17.50718
G1 X90.995 Y87.608 E17.54137
G1 X91.544 Y87.558 E17.5597
G1 X92.346 Y87.514 E17.58642
G1 X93.152 Y87.501 E17.61323
G1 X119.753 Y87.5 E18.49798
G1 X120.575 Y87.51 E18.52532
G1 X121.27 Y87.543 E18.54846
G1 X121.859 Y87.591 E18.56812
G1 X122.755 Y87.703 E18.59815
G1 X123.691 Y87.901 E18.62997
G1 X124.21 Y88.035 E18.6478
G1 X125.141 Y88.321 E18.68019
G1 X125.977 Y88.66 E18.7102
G1 X126.49 Y88.893 E18.72894
G1 X127.359 Y89.336 E18.76138
G1 X128.179 Y89.852 E18.7936
G1 X128.668 Y90.191 E18.81339
G1 X129.513 Y90.844 E18.84891
G1 X130.42 Y91.625 E18.88872
G1 X132.411 Y93.288 E18.975
G1 X134.369 Y94.834 E19.05798
G1 X136.395 Y96.34 E19.14194
G1 X138.472 Y97.795 E19.22629
G1 X140.558 Y99.172 E19.30942
G1 X142.715 Y100.509 E19.39383
G1 X144.901 Y101.78 E19.47793
G1 X147.094 Y102.973 E19.56097
G1 X149.315 Y104.101 E19.64382
G1 X151.632 Y105.196 E19.72905
G1 X153.923 Y106.203 E19.81229
G1 X156.998 Y107.434 E19.92245
G1 X157.403 Y107.605 E19.93708
G1 X158.007 Y107.878 E19.95912
G1 X158.878 Y108.32 E19.99161
G1 X159.718 Y108.846 E20.02457
G1 X160.189 Y109.172 E20.04362
G1 X160.936 Y109.739 E20.07482
G1 X161.635 Y110.371 E20.10616
G1 X162.025 Y110.756 E20.12439
G1 X162.662 Y111.445 E20.1556
G1 X163.246 Y112.198 E20.18729
G1 X163.565 Y112.647 E20.20561
G1 X164.071 Y113.435 E20.23676
G1 X164.498 Y114.238 E20.26701
G1 X164.74 Y114.748 E20.28578
G1 X165.119 Y115.645 E20.31817
G1 X165.391 Y116.484 E20.3475
G1 X165.547 Y117.047 E20.36694
G1 X165.75 Y117.927 E20.39697
G1 X165.891 Y118.941 E20.43102
G1 X165.941 Y119.489 E20.44933
G1 X165.986 Y120.293 E20.47611
G1 X165.999 Y121.088 E20.50255
G1 X165.999 Y125.944 E20.66407
G1 X165.99 Y126.625 E20.68672
G1 X165.957 Y127.32 E20.70986
G1 X165.909 Y127.909 E20.72951
G1 X165.797 Y128.805 E20.75955
G1 X165.598 Y129.746 E20.79154
G1 X165.465 Y130.265 E20.80936
G1 X165.201 Y131.128 E20.83937
G1 X164.845 Y132.018 E20.87126
G1 X164.612 Y132.532 E20.89003
G1 X164.203 Y133.338 E20.92009
G1 X163.654 Y134.218 E20.95458
G1 X163.328 Y134.689 E20.97364
G1 X162.761 Y135.436 E21.00483
G1 X162.129 Y136.135 E21.03617
G1 X161.744 Y136.525 E21.0544
G1 X161.055 Y137.162 E21.08561
G1 X160.302 Y137.746 E21.1173
G1 X159.853 Y138.065 E21.13562
G1 X159.035 Y138.589 E21.16793
G1 X158.253 Y139.001 E21.19733
G1 X157.743 Y139.243 E21.21611
G1 X156.88 Y139.608 E21.24727
G1 X155.988 Y139.898 E21.27847
G1 X155.458 Y140.046 E21.29677
G1 X154.578 Y140.249 E21.32681
G1 X153.671 Y140.381 E21.35729
G1 X152.988 Y140.447 E21.38011
G1 X151.798 Y140.535 E21.4198
G1 X149.196 Y140.763 E21.50668
G1 X146.676 Y141.059 E21.59107
G1 X144.208 Y141.419 E21.67402
G1 X141.702 Y141.857 E21.75864
G1 X139.281 Y142.349 E21.84081
G1 X136.816 Y142.926 E21.92501
G1 X134.355 Y143.575 E22.00966
G1 X131.939 Y144.285 E22.09341
G1 X129.587 Y145.05 E22.17568
G1 X126.396 Y146.203 E22.28852
G1 X125.416 Y146.579 E22.32344
G1 X124.454 Y146.894 E22.3571
G1 X123.899 Y147.048 E22.37626
G1 X123.019 Y147.25 E22.40629
G1 X122.005 Y147.392 E22.44035
G1 X121.456 Y147.442 E22.45868
G1 X120.655 Y147.486 E22.48536
G1 X119.862 Y147.499 E22.51174
G1 X83.556 Y147.499 E23.71928
G1 X82.875 Y147.49 E23.74194
G1 X82.18 Y147.457 E23.76508
G1 X81.591 Y147.409 E23.78473
G1 X80.695 Y147.297 E23.81477
G1 X79.759 Y147.099 E23.84659
G1 X79.24 Y146.965 E23.86441
G1 X78.309 Y146.679 E23.89681
G1 X77.473 Y146.34 E23.92681
G1 X76.96 Y146.107 E23.94555
G1 X76.091 Y145.664 E23.97799
G1 X75.295 Y145.164 E24.00926
G1 X74.811 Y144.828 E24.02886
G1 X74.064 Y144.261 E24.06005
G1 X73.365 Y143.629 E24.09139
G1 X72.975 Y143.244 E24.10962
G1 X72.338 Y142.555 E24.14083
G1 X71.754 Y141.802 E24.17252
G1 X71.435 Y141.353 E24.19084
G1 X70.929 Y140.565 E24.22199
G1 X70.502 Y139.762 E24.25224
G1 X70.26 Y139.252 E24.27101
G1 X69.881 Y138.355 E24.3034
G1 X69.609 Y137.516 E24.33274
G1 X69.453 Y136.953 E24.35217
G1 X69.25 Y136.073 E24.3822
G1 X69.109 Y135.059 E24.41625
G1 X69.059 Y134.511 E24.43456
G1 X69.014 Y133.707 E24.46134
G1 X69.001 Y132.912 E24.48779
G1 X69.001 Y118.029 E24.9828
G1 X69.01 Y117.37 E25.00472
G1 X69.043 Y116.68 E25.02769
G1 X69.091 Y116.091 E25.04735
G1 X69.203 Y115.195 E25.07738
G1 X69.402 Y114.254 E25.10937
G1 X69.535 Y113.735 E25.12719
G1 X69.799 Y112.872 E25.15721
G1 X70.155 Y111.982 E25.18909
G1 X70.388 Y111.468 E25.20786
G1 X70.797 Y110.662 E25.23792
G1 X71.291 Y109.861 E25.26922
G1 X71.624 Y109.373 E25.28887
G1 X73.304 Y106.985 E25.38598
G1 X74.674 Y104.907 E25.46877
G1 X76.011 Y102.751 E25.55314
G1 X77.275 Y100.576 E25.63681
G1 X78.449 Y98.423 E25.71838
G1 X80.067 Y95.199 E25.83835
G1 X80.512 Y94.379 E25.86938
G1 X80.886 Y93.794 E25.89248
G1 X81.199 Y93.34 E25.91082
G1 X81.777 Y92.578 E25.94263
G1 X82.421 Y91.865 E25.97458
G1 X82.806 Y91.475 E25.99281
G1 X83.495 Y90.838 E26.02402
G1 F2700 E21.02402
;MESH:Mount Modified 1.STL
G0 F6000 X83.5 Y113.835
G0 X86.581 Y119.471
;TYPE:WALL-INNER
G1 F2700 E26.02402
G1 F1200 X86.221 Y119.569 E26.03643
G1 X85.85 Y119.603 E26.04882
G1 X85.48 Y119.569 E26.06118
G1 X85.129 Y119.477 E26.07325
G1 X84.796 Y119.32 E26.08549
G1 X84.498 Y119.112 E26.09758
G1 X84.238 Y118.852 E26.10981
G1 X84.029 Y118.552 E26.12197
